resources/svg/hd-screen.svg

<svg width="15" height="15" viewBox="0 0 15 15" fill="none" xmlns="http://www.w3.org/2000/svg">
<path d="M0.947762 1.10792C0.472799 0.972213 0 1.32885 0 1.82281V11.1772C0 11.6711 0.472801 12.0278 0.947762 11.8921C2.92718 11.3265 4.96152 11.0224 7 10.9796V13H2V14H13V13H8V10.9796C10.0385 11.0224 12.0728 11.3265 14.0522 11.8921C14.5272 12.0278 15 11.6711 15 11.1772V1.82282C15 1.32885 14.5272 0.972214 14.0522 1.10792C9.76976 2.33148 5.23024 2.33148 0.947762 1.10792Z" fill="black"/>
</svg>

<svg viewBox="0 0 15 15" fill="none" xmlns="http://www.w3.org/2000/svg" fill="currentColor"><path d="M.948 1.108A.744.744 0 000 1.823v9.354c0 .494.473.85.948.715A23.85 23.85 0 017 10.98V13H2v1h11v-1H8v-2.02c2.039.042 4.073.346 6.052.912a.744.744 0 00.948-.715V1.823a.744.744 0 00-.948-.715 23.85 23.85 0 01-13.104 0z" fill="currentColor"/></svg>
